X: 1
T: West End, The
I: RJ R-21 D reel
M: C|
R: reel
K: D
AG |\
"D"FGAF D2d2 | "A"cdec A3f |\
[1,3 "G"gfed B2ed | "A"c2A2- A2 :|\
[2,4 "G"gfed "A"Bdce | "D"d6 :|
|: fg |\
"D"afdf a2a2 | "A"gece g2g2 |\
[1,3 "D"fedc "(Em)"d2ed | "A"c2A2- A2 :|\
[2 "D"afdf "A"gece | "D"d2f2 d2 ||
AG |\
"D"FGAF D2d2 | "A"cdec A3f |\
"G"gfed "A"Bdce | "D"d6 |]


